X:218
T:I'm Waiting To Hear You Call Me Darlin'
C: arranged by Lee Marcus
N:Transcribed by Lee Marcus
R:bluegrass
L:1/8
Q:1/4=235
M:4/4
K:A
z2 c/e/e ef e2 | c/e/e ef e2 ed | =c^c ce B/c/B AF | A2 E/F/F dF Fd | zA EF AB cd | 
e2 c/e/e ef af | e=c ^ce B/c/B A2 | B=G ^GB F/=G/F EC | E2 EF AB c2 | c/e/e ef e2 ed | 
=c^c ce B/c/B AF | A2 E/F/F dF Fd | zA EF AB cd | Bc ce B/c/B AF | EF GB =cB AF | 
AE FA FE CE | A8 | 


